X: 48
T: Missa De sancta cruce / Gloria
N: Derived from Rue1011b-Missa_De_sancta_cruce-Gloria.krn
C: Pierre de la Rue
%%abc-version 2.0
%%abcx-abcm2ps-target-version 5.9.1 (29 Sep 2008)
%%abc-creator hum2abc beta
%%abcx-conversion-date 2019/02/17 08:01:11
%%abc-edited-by Jesse Rodin
%%abc-edited-by Chris Gage 09-22-2012
%%abcx-initial-encoding-date 2012/09/29/
%%humdrum-veritas 3089609062
%%humdrum-veritas-data 1129631732
%%linebreak <none>
%%barnumbers 0
L: 1/4
M: 3/1
Q: 1/2=120
V: 1 clef=treble
V: 2 clef=treble
V: 3 clef=treble-8
V: 4 clef=treble-8
V: 5 clef=bass
K: F
[V:1] z12 | 
[V:2] G4G2B4A2 | 
[V:3] z12 | 
[V:4] z12 | 
[V:5] G,8G,4 | 
[V:1] d8d4 | 
[V:2] G2FED8 | 
[V:3] z12 | 
[V:4] z12 | 
[V:5] B,4B,2G,4F,E, | 
[V:1] f4f2d4cB | 
[V:2] z2D2F4F2D2- | 
[V:3] z12 | 
[V:4] d8d4 | 
[V:5] D,8z4 | 
[V:1] A8z4 | 
[V:2] D2CB,A,8 | 
[V:3] z12 | 
[V:4] f4f2d4cB | 
[V:5] D,8D,4 | 
[V:1] A8A4 | 
[V:2] z2D2C2F4ED | 
[V:3] z12 | 
[V:4] A8z4 | 
[V:5] F,4F,2D,4C,B,, | 
[V:1] c4c2A4GF | 
[V:2] C3DE4A4- | 
[V:3] z12 | 
[V:4] A8A4 | 
[V:5] A,,8A,,4 | 
[V:1] E4E2F4F2 | 
[V:2] A4A3GF2D2 | 
[V:3] z12 | 
[V:4] c4c2A4GF | 
[V:5] A,4A,2D,4D,2 | 
[V:1] G2A3GG4^F2 | 
[V:2] E2D4C2D4 | 
[V:3] z12 | 
[V:4] E2F2G4A4 | 
[V:5] G,2F,2E,4D,4 | 
[V:1] G4z2G3AB2 | 
[V:2] z2G3FD2E2D2 | 
[V:3] G12- | 
[V:4] z2G3AB2c2d2 | 
[V:5] z2E,3F,G,2C,2G,2 | 
[V:1] c2_e4d4c2 | 
[V:2] G8G2G2 | 
[V:3] G12 | 
[V:4] _e2c2d4_e4 | 
[V:5] C,2C,4B,,2C,4 | 
[V:1] d2d2d2B3cd2 | 
[V:2] G8F4 | 
[V:3] B12- | 
[V:4] d12 | 
[V:5] G,8D,4 | 
[V:1] G8B4 | 
[V:2] G2B3AG4F2- | 
[V:3] B12 | 
[V:4] z4z4d4 | 
[V:5] _E,8B,,4 | 
[V:1] c2d3ef3ec2 | 
[V:2] F2F2D2C2F4- | 
[V:3] A12 | 
[V:4] c2f4edc4 | 
[V:5] F,8F,4 | 
[V:1] d2d4c2B4 | 
[V:2] F2G4F3EE2 | 
[V:3] B12 | 
[V:4] B4z4z4 | 
[V:5] B,,2B,4A,2G,2G,2 | 
[V:1] A4z2A3Bc2 | 
[V:2] F4z2F3GA2 | 
[V:3] c12- | 
[V:4] z2A3Bc2A3B | 
[V:5] F,8z4 | 
[V:1] F2c3BGABcd2- | 
[V:2] F2A3G/F/E2D2G2- | 
[V:3] c8B4 | 
[V:4] c2A2c3BG4 | 
[V:5] F,3E,C,D,E,F,G,A,B,2- | 
[V:1] d2c4B4A2 | 
[V:2] G2F3EE2F4- | 
[V:3] G2A2B4c4 | 
[V:4] B2A2G4z2c2 | 
[V:5] B,A,F,2G,4F,4 | 
[V:1] B8z4 | 
[V:2] F4z4z2G2 | 
[V:3] B12 | 
[V:4] d4d2d3cBA | 
[V:5] z2B,,2B,,3C,D,2_E,2- | 
[V:1] z2d2d2d2c2c2 | 
[V:2] G2G2F2F2E2E2 | 
[V:3] z12 | 
[V:4] G3AB4z4 | 
[V:5] E,D,B,,4B,,2C,D,=E,F, | 
[V:1] B2B2A8 | 
[V:2] D4z2F4F2 | 
[V:3] z12 | 
[V:4] z2d2d2d2c2c2 | 
[V:5] G,4D,3E,F,G,A,2- | 
[V:1] z2d2c2A2B3c | 
[V:2] (3E2F2G2C4z4 | 
[V:3] z12 | 
[V:4] B2B2A2c2B2G2 | 
[V:5] A,2G,2A,4z2D2 | 
[V:1] (3A2B2c2F2c3BG2 | 
[V:2] z4z4E4 | 
[V:3] z12 | 
[V:4] A4z4c4- | 
[V:5] C2A,2B,2C2(3A,2B,2C2 | 
[V:1] (3:2:8A4A2B4A G^F2G2F2 | 
[V:2] F4D2E2D4 | 
[V:3] z12 | 
[V:4] c2d3cB2A4 | 
[V:5] F,4G,4D,4 | 
[V:1] G4z4z2G2- | 
[V:2] z2G4FED2B2- | 
[V:3] B12 | 
[V:4] G12 | 
[V:5] z12 | 
[V:1] G2FED2B4AG | 
[V:2] B2AGF2G2D4- | 
[V:3] G4B8- | 
[V:4] z12 | 
[V:5] z4z2G,4F,E, | 
[V:1] F2G2D4z4 | 
[V:2] D4z4z2D2 | 
[V:3] B8A2B2 | 
[V:4] z2d4cBc2G2 | 
[V:5] D,2B,4A,G,F,2G,2 | 
[V:1] z12 | 
[V:2] E2D2E4F4 | 
[V:3] c2d4c4=B2 | 
[V:4] A2B3AG4F2 | 
[V:5] C,2B,,2C,4D,4 | 
[V:1] z12 | 
[V:2] E2C2C2E4E2 | 
[V:3] c12 | 
[V:4] G8G4 | 
[V:5] C,6C,2E,4- | 
[V:1] G4G2B4B2 | 
[V:2] G6FED2G2 | 
[V:3] G8z4 | 
[V:4] G2B4B2d4- | 
[V:5] E,2E,2G,6F,E, | 
[V:1] d6cBA2d2- | 
[V:2] F2A4GFF2B2 | 
[V:3] z12 | 
[V:4] d2cBA4d4 | 
[V:5] D,8D,4 | 
[V:1] d2c4B2A4 | 
[V:2] A4A2G4^F2 | 
[V:3] z12 | 
[V:4] z2A4d4d2 | 
[V:5] D,2F,4G,2D,4 | 
[V:1] G4z2d4cB | 
[V:2] G12 | 
[V:3] G4G2B4B2 | 
[V:4] B3cd8 | 
[V:5] G,12 | 
[V:1] A2B3AB2c3A | 
[V:2] z12 | 
[V:3] d6cBA2d2- | 
[V:4] z12 | 
[V:5] z12 | 
[V:1] B2cBAGG4^F2 | 
[V:2] z12 | 
[V:3] d2c4B2A4 | 
[V:4] z12 | 
[V:5] z12 | 
[V:1] G8z4 | 
[V:2] z12 | 
[V:3] G12- | 
[V:4] z2d2d2d2_e2d2- | 
[V:5] z12 | 
[V:1] z2d2d2d2_e2d2- | 
[V:2] z12 | 
[V:3] G8z4 | 
[V:4] d2B4ABc2B2 | 
[V:5] z12 | 
[V:1] d2B4ABc2B2 | 
[V:2] z12 | 
[V:3] z12 | 
[V:4] G4z4z4 | 
[V:5] z2G,2G,2G,2A,2G,2- | 
[V:1] G6FGA2G2- | 
[V:2] z12 | 
[V:3] z12 | 
[V:4] G8c3B | 
[V:5] G,2E,4D,E,F,2E,2 | 
[V:1] G2G2AGc4=B2 | 
[V:2] G4E2G3FED | 
[V:3] z12 | 
[V:4] cde4dcd4 | 
[V:5] C,8G,4 | 
[V:1] c8z4 | 
[V:2] E3FG2A4G2 | 
[V:3] c12- | 
[V:4] c3de2f4e2 | 
[V:5] C,8z4 | 
[V:1] c6d2e4 | 
[V:2] A8G4 | 
[V:3] c12 | 
[V:4] f8z4 | 
[V:5] F,8E,4 | 
[V:1] f4d8 | 
[V:2] F2A2B2c4=B2 | 
[V:3] d12 | 
[V:4] f4g4g4 | 
[V:5] D,4G,8 | 
[V:1] e8z4 | 
[V:2] c8G4 | 
[V:3] c12 | 
[V:4] e8e4 | 
[V:5] C,12 | 
[V:1] e4e2c4A2 | 
[V:2] z4z4A4 | 
[V:3] c8c4 | 
[V:4] e2c4A2A4- | 
[V:5] z4A,4A,2F,2- | 
[V:1] A8d4 | 
[V:2] A2F4D2D4- | 
[V:3] d12- | 
[V:4] A4d4d2B2- | 
[V:5] F,2D,2D,8 | 
[V:1] d2B4G2G4 | 
[V:2] D4G4G2E2- | 
[V:3] d4e8- | 
[V:4] B2G2G4z2G2 | 
[V:5] G,4G,2E,4C,2 | 
[V:1] z2G2c3BA2d2- | 
[V:2] E2C2C4z2F2 | 
[V:3] e8d4- | 
[V:4] c3BA4d3c | 
[V:5] C,4z2C,2F,3E, | 
[V:1] dcBAG2c4B2 | 
[V:2] F2D2G3FE3D | 
[V:3] d4e8 | 
[V:4] BAB2G2g4g2 | 
[V:5] D,2G,3F,E,D,C,2G,2 | 
[V:1] c2G2A2B2G2c2- | 
[V:2] C4z4z2G2 | 
[V:3] z4z4z2e2 | 
[V:4] e6d2e2c2- | 
[V:5] A,2C4B,2C3B, | 
[V:1] c2=B2c4z4 | 
[V:2] A2B2G2c4=B2 | 
[V:3] f2g2e4d2g2- | 
[V:4] c2d2e4d4 | 
[V:5] A,2G,2C,2E,2F,2G,2 | 
[V:1] z4z2A2B2c2 | 
[V:2] c2F2E2F2G4 | 
[V:3] gfedc2d4^c2 | 
[V:4] c3BA2A4G2 | 
[V:5] E,2A,3G,F,2E,4 | 
[V:1] A2d3cBAG4 | 
[V:2] F8G4 | 
[V:3] d12- | 
[V:4] A8B4 | 
[V:5] D,8z4 | 
[V:1] F12 ||  
[V:2] A12 ||  
[V:3] d12 ||  
[V:4] A12 ||  
[V:5] D,12 ||  
[V:1]  [K:F] [K:clef=treble][M:2/1]z8 | 
[V:2]  [K:F] [K:clef=treble][M:2/1]z8 | 
[V:3]  [K:F] [K:clef=treble-8][M:2/1]f8- | 
[V:4]  [K:F] [K:clef=treble-8][M:2/1]A4A2B2- | 
[V:5]  [K:F] [K:clef=bass][M:2/1]D,8- | 
[V:1] z4A4 | 
[V:2] z8 | 
[V:3] f8- | 
[V:4] BAd4cB | 
[V:5] D,8- | 
[V:1] A2B3Ad2- | 
[V:2] z8 | 
[V:3] f8 | 
[V:4] A2d4cB | 
[V:5] D,8 | 
[V:1] d2c4=B2 | 
[V:2] z8 | 
[V:3] d8 | 
[V:4] A4G4 | 
[V:5] F,4G,4 | 
[V:1] c8 | 
[V:2] z4E4 | 
[V:3] c8- | 
[V:4] z8 | 
[V:5] A,8- | 
[V:1] c4c4 | 
[V:2] E2F3EA2- | 
[V:3] c8- | 
[V:4] z8 | 
[V:5] A,8- | 
[V:1] c8 | 
[V:2] A2G4^F2 | 
[V:3] c8 | 
[V:4] z4A4 | 
[V:5] A,8 | 
[V:1] B3cd_ed2- | 
[V:2] G8- | 
[V:3] d8- | 
[V:4] B6AG | 
[V:5] G,8- | 
[V:1] d2c4=B2 | 
[V:2] G8 | 
[V:3] d8 | 
[V:4] B2c2d4 | 
[V:5] G,8 | 
[V:1] c8- | 
[V:2] G6A2- | 
[V:3] e8 | 
[V:4] c6A2 | 
[V:5] C,8 | 
[V:1] c8 | 
[V:2] A2GFE2G2- | 
[V:3] e4c4- | 
[V:4] c2BAG4 | 
[V:5] z4C,3D, | 
[V:1] z8 | 
[V:2] G2C2G2C2 | 
[V:3] c4c4 | 
[V:4] G2A2G2A2- | 
[V:5] E,2F,2E,2F,2- | 
[V:1] z8 | 
[V:2] F4F3G | 
[V:3] d8 | 
[V:4] A2F3GA2- | 
[V:5] F,2D,2D,3E, | 
[V:1] z8 | 
[V:2] A2D2A2D2 | 
[V:3] d8 | 
[V:4] A2B2A2B2- | 
[V:5] F,2G,2F,2G,2- | 
[V:1] z4c4- | 
[V:2] G8 | 
[V:3] e8 | 
[V:4] B2G2G4- | 
[V:5] G,2C,2C,4- | 
[V:1] c4c4 | 
[V:2] G4G4 | 
[V:3] e8 | 
[V:4] G4c4 | 
[V:5] C,4C,4 | 
[V:1] A3Bc2d2 | 
[V:2] A4A2B2 | 
[V:3] f8 | 
[V:4] c6B2 | 
[V:5] F,6B,,2 | 
[V:1] c2d4B2 | 
[V:2] A2B2G4- | 
[V:3] f4d4 | 
[V:4] c2B4G2 | 
[V:5] F,2B,,2B,3G, | 
[V:1] B3cd2_e2 | 
[V:2] G4G4 | 
[V:3] d2B3cc2 | 
[V:4] B6G2 | 
[V:5] G,6C,2 | 
[V:1] d2_e3dc2- | 
[V:2] G8 | 
[V:3] B2c3d_e2- | 
[V:4] G4A4 | 
[V:5] G,2C,2C4 | 
[V:1] c2B2c4 | 
[V:2] z8 | 
[V:3] e2d4c2- | 
[V:4] B4G2A2 | 
[V:5] G,4E,2F,2 | 
[V:1] d4G4 | 
[V:2] z4E4 | 
[V:3] c2B2c4 | 
[V:4] F4G4 | 
[V:5] D,4C,4 | 
[V:1] z4G4 | 
[V:2] E2E4G2- | 
[V:3] G8 | 
[V:4] z4c4 | 
[V:5] z4C,4 | 
[V:1] B8 | 
[V:2] G2FED2G2- | 
[V:3] z8 | 
[V:4] d6B2- | 
[V:5] G,8 | 
[V:1] c4d4 | 
[V:2] G2F4D2 | 
[V:3] z4B4 | 
[V:4] B2AGF4 | 
[V:5] E,2F,2D,4 | 
[V:1] G2A2G2A2- | 
[V:2] E2A,2E2A,2 | 
[V:3] c8 | 
[V:4] z2F2G2F2- | 
[V:5] C,2F,2E,2F,2 | 
[V:1] A2B2c2BA | 
[V:2] F4G4 | 
[V:3] d4e4- | 
[V:4] F2F2E4 | 
[V:5] D,4C,4- | 
[V:1] G4z4 | 
[V:2] E4A4- | 
[V:3] e4d4- | 
[V:4] G4F4 | 
[V:5] C,4D,4 | 
[V:1] z8 | 
[V:2] A2G2E4 | 
[V:3] d4^c4 | 
[V:4] E8 | 
[V:5] A,,8 | 
[V:1] d3cA2B2- | 
[V:2] F8 | 
[V:3] d8 | 
[V:4] D8 | 
[V:5] z8 | 
[V:1] BAd4^c2 | 
[V:2] z8 | 
[V:3] e8 | 
[V:4] z8 | 
[V:5] z8 | 
[V:1] d2d3cB2- | 
[V:2] z8 | 
[V:3] d8 | 
[V:4] d3cA2B2- | 
[V:5] D,8- | 
[V:1] BAGFG4 | 
[V:2] z8 | 
[V:3] z8 | 
[V:4] BAd4^c2 | 
[V:5] D,4E,4 | 
[V:1] F4c4- | 
[V:2] A3GE2F2- | 
[V:3] z8 | 
[V:4] d4z4 | 
[V:5] D,4A,4- | 
[V:1] c4d4 | 
[V:2] FEA4G2 | 
[V:3] z8 | 
[V:4] z4d4 | 
[V:5] A,4B,4 | 
[V:1] c2def2e2- | 
[V:2] A8- | 
[V:3] z8 | 
[V:4] e2f3ec2- | 
[V:5] A,8- | 
[V:1] e2d4^c2 | 
[V:2] A8 | 
[V:3] z8 | 
[V:4] c2d2e4 | 
[V:5] A,8 | 
[V:1] d4z2d2- | 
[V:2] A8- | 
[V:3] f8- | 
[V:4] z2d4d2 | 
[V:5] D,8 | 
[V:1] d2d2A4 | 
[V:2] A8 | 
[V:3] f8 | 
[V:4] A4A2d2- | 
[V:5] D,8 | 
[V:1] A2d4A2- | 
[V:2] z4z2A2- | 
[V:3] d8 | 
[V:4] d2A4A2 | 
[V:5] D,8 | 
[V:1] ABc4A2 | 
[V:2] A2A2E4 | 
[V:3] c8 | 
[V:4] A4A4- | 
[V:5] A,,8 | 
[V:1] A4z2A2 | 
[V:2] E2F4E2 | 
[V:3] c8- | 
[V:4] A2c3BAG | 
[V:5] z4A,4 | 
[V:1] A2A2c4- | 
[V:2] F4F4 | 
[V:3] c8 | 
[V:4] F8 | 
[V:5] A,4A,4 | 
[V:1] c4B4 | 
[V:2] G8- | 
[V:3] d8 | 
[V:4] z8 | 
[V:5] G,8 | 
[V:1] c4A4- | 
[V:2] G4F4 | 
[V:3] c8 | 
[V:4] z8 | 
[V:5] C,4F,4 | 
[V:1] A2GFG4 | 
[V:2] D4z2D2 | 
[V:3] B8 | 
[V:4] z2d2d2d2 | 
[V:5] G,8 | 
[V:1] A8 | 
[V:2] D2D2F3E | 
[V:3] A8- | 
[V:4] f3ec3d | 
[V:5] D,4z2A,2 | 
[V:1] z8 | 
[V:2] C3DE2A,2 | 
[V:3] A8 | 
[V:4] e8- | 
[V:5] A,2A,2C3B, | 
[V:1] z8 | 
[V:2] z2A4G2 | 
[V:3] B8 | 
[V:4] e4d4 | 
[V:5] G,2A,2B,4 | 
[V:1] z4e4- | 
[V:2] A4A4- | 
[V:3] c8- | 
[V:4] e4e4- | 
[V:5] A,4A,4- | 
[V:1] e2e2e4 | 
[V:2] A2A2A4 | 
[V:3] c8 | 
[V:4] e2e2e4- | 
[V:5] A,2A,2A,4 | 
[V:1] e4e4 | 
[V:2] A4A4- | 
[V:3] c8- | 
[V:4] e4e4 | 
[V:5] A,4A,4 | 
[V:1] f4f4 | 
[V:2] A4A4 | 
[V:3] c8- | 
[V:4] A4A4 | 
[V:5] F,4F,4 | 
[V:1] e6c2 | 
[V:2] G6E2 | 
[V:3] c8- | 
[V:4] e4e4- | 
[V:5] C,8 | 
[V:1] c4z2c2- | 
[V:2] E8 | 
[V:3] c8 | 
[V:4] e2dcc4- | 
[V:5] C,8- | 
[V:1] c2BAG2c2 | 
[V:2] z4E4 | 
[V:3] e8 | 
[V:4] c4c4 | 
[V:5] C,8 | 
[V:1] F2f3ed2- | 
[V:2] F2D3EFG | 
[V:3] d8- | 
[V:4] A4A4- | 
[V:5] D,4D,4 | 
[V:1] d2c4=B2 | 
[V:2] A4G4 | 
[V:3] d8 | 
[V:4] A4B4 | 
[V:5] F,4G,4 | 
[V:1] c4c4 | 
[V:2] E4A4 | 
[V:3] c8 | 
[V:4] G4F4 | 
[V:5] C,4F,4 | 
[V:1] c2c4c2 | 
[V:2] A2A4A2 | 
[V:3] c4c4- | 
[V:4] f4f2f2- | 
[V:5] F,2F,4F,2 | 
[V:1] d4f4 | 
[V:2] A4F4 | 
[V:3] c4B4 | 
[V:4] f2f2d4 | 
[V:5] D,4D,4 | 
[V:1] e6c2 | 
[V:2] G4z2G2- | 
[V:3] c4A2G2 | 
[V:4] e2c4BA | 
[V:5] C,8 | 
[V:1] d4z2G2 | 
[V:2] GFD2E4 | 
[V:3] B4c4- | 
[V:4] G4z4 | 
[V:5] z4C,4 | 
[V:1] A4c4- | 
[V:2] F8 | 
[V:3] c4A4 | 
[V:4] z8 | 
[V:5] F,8 | 
[V:1] c4c4 | 
[V:2] G8- | 
[V:3] G4c3d | 
[V:4] z8 | 
[V:5] E,2C,3D,E,F, | 
[V:1] B2G3ABc | 
[V:2] G8 | 
[V:3] e2d3cBA | 
[V:4] z8 | 
[V:5] G,8 | 
[V:1] d2e3dfe | 
[V:2] B4G2A2- | 
[V:3] G2g4f2- | 
[V:4] z8 | 
[V:5] G,4E,2D,2 | 
[V:1] dcc4=B2 | 
[V:2] A2A2G4 | 
[V:3] f2e2d4 | 
[V:4] z8 | 
[V:5] F,4G,4 | 
[V:1] [M:3/1]c12 | 
[V:2] [M:3/1]E4z4C4 | 
[V:3] c12- | 
[V:4] z12 | 
[V:5] [M:3/1]z12 | 
[V:1] z12 | 
[V:2] E8E4 | 
[V:3] c12 | 
[V:4] [M:3/1]z12 | 
[V:5] z4z4C,4 | 
[V:1] z12 | 
[V:2] G6F2E4 | 
[V:3] [M:3/1]G12 | 
[V:4] z4z4G4 | 
[V:5] E,8E,4 | 
[V:1] z4z4G4 | 
[V:2] D4G8 | 
[V:3] z12 | 
[V:4] B8B4 | 
[V:5] G,6F,2E,4 | 
[V:1] B8B4 | 
[V:2] F4G8 | 
[V:3] z12 | 
[V:4] d6c2B4 | 
[V:5] D,4G,8 | 
[V:1] d6c2B4 | 
[V:2] A8F4- | 
[V:3] z12 | 
[V:4] A4d8 | 
[V:5] D,8D,4 | 
[V:1] A4c8 | 
[V:2] F4A8 | 
[V:3] z12 | 
[V:4] c6B2A4 | 
[V:5] F,8F,4 | 
[V:1] B6A2G4 | 
[V:2] D8E4 | 
[V:3] z4z4G4 | 
[V:4] G12 | 
[V:5] G,6F,2E,4 | 
[V:1] F4B8 | 
[V:2] F4G8 | 
[V:3] B8B4 | 
[V:4] z4z4G4 | 
[V:5] D,4G,8 | 
[V:1] A8B4 | 
[V:2] F6E2E4 | 
[V:3] d6c2B4 | 
[V:4] A8G4 | 
[V:5] D,8z4 | 
[V:1] c6A2B4 | 
[V:2] A6G2G4 | 
[V:3] A4d8 | 
[V:4] F4B8 | 
[V:5] z12 | 
[V:1] c4A8- | 
[V:2] A4F8 | 
[V:3] c8c4 | 
[V:4] A12 | 
[V:5] F,12- | 
[V:1] A8G4 | 
[V:2] F4D4E4 | 
[V:3] A4B8 | 
[V:4] z12 | 
[V:5] F,4G,8 | 
[V:1] A8z4 | 
[V:2] F8E4 | 
[V:3] A8z4 | 
[V:4] d6c2B4 | 
[V:5] D,8E,4 | 
[V:1] A8B4 | 
[V:2] C4F8 | 
[V:3] z12 | 
[V:4] A4F8 | 
[V:5] F,6E,2D,4 | 
[V:1] c6d2e4 | 
[V:2] E8E4 | 
[V:3] z12 | 
[V:4] G8G4 | 
[V:5] C,8C,4 | 
[V:1] f4d8 | 
[V:2] A6G2F4 | 
[V:3] A8B4 | 
[V:4] F8F4 | 
[V:5] D,8D,4 | 
[V:1] e6c2c4 | 
[V:2] E6F2G4 | 
[V:3] c6d2e4 | 
[V:4] G8G4 | 
[V:5] C,12 | 
[V:1] c8=B4 | 
[V:2] A4G8 | 
[V:3] f4d8 | 
[V:4] F4G8 | 
[V:5] z12 | 
[V:1] c8c4 | 
[V:2] E8G4- | 
[V:3] c12 | 
[V:4] z12 | 
[V:5] C,8C,4 | 
[V:1] B4d8 | 
[V:2] G4D8 | 
[V:3] z12 | 
[V:4] d8B4 | 
[V:5] G,8G,4 | 
[V:1] c8A4 | 
[V:2] A8A4 | 
[V:3] z4z4c4 | 
[V:4] c4A8 | 
[V:5] A,4F,8 | 
[V:1] B6A2B4 | 
[V:2] D4G8 | 
[V:3] B4d8 | 
[V:4] G4B6A2 | 
[V:5] G,8G,4 | 
[V:1] c8c4 | 
[V:2] E4F8 | 
[V:3] c12 | 
[V:4] A8A4 | 
[V:5] A,4F,8 | 
[V:1] d6c2B4 | 
[V:2] G2B4A2G4 | 
[V:3] B4d8 | 
[V:4] B4G8 | 
[V:5] B,,6C,2D,2E,2 | 
[V:1] A6G2A4 | 
[V:2] F12- | 
[V:3] c12 | 
[V:4] A8A4 | 
[V:5] F,8F,4 | 
[V:1] B8B4 | 
[V:2] F8z4 | 
[V:3] B4d8 | 
[V:4] F8G4 | 
[V:5] B,,6C,2D,2E,2 | 
[V:1] A8A4 | 
[V:2] F12- | 
[V:3] c8A4- | 
[V:4] A8c4- | 
[V:5] F,8F,4 | 
[V:1] F4G8 | 
[V:2] F4D4E4 | 
[V:3] A4B8 | 
[V:4] c4d4B4 | 
[V:5] A,4G,8 | 
[V:1] A12- | 
[V:2] F8E4 | 
[V:3] A12- | 
[V:4] c4A6G2 | 
[V:5] F,8C,4- | 
[V:1] A12- | 
[V:2] E8D4 | 
[V:3] A12 | 
[V:4] E4F8 | 
[V:5] C,4D,8 | 
[V:1] A12 |]  
[V:2] E12 |]  
[V:3] A12 |]  
[V:4] E12 |]  
[V:5] A,,12 |]  



